src/components/Icon/assets/call-off.svg

<svg width="24" height="24" viewBox="0 0 24 24" fill="none" xmlns="http://www.w3.org/2000/svg">
<path fill-rule="evenodd" clip-rule="evenodd" d="M23.3249 12.1959L22.9209 11.8989C16.4249 7.1139 7.5709 7.1149 1.0759 11.9009L0.674897 12.1959C0.483897 12.3369 0.442897 12.6069 0.583897 12.7979L2.1529 14.9269C2.7079 15.6809 3.7339 15.9089 4.5559 15.4609L6.8529 14.2099C7.4549 13.8819 7.8299 13.2509 7.8299 12.5659V10.7189C10.5659 9.9999 13.4349 9.9999 16.1709 10.7199V12.5659C16.1709 13.2509 16.5449 13.8819 17.1469 14.2099L19.4439 15.4609C20.2659 15.9079 21.2919 15.6809 21.8469 14.9269L22.0039 14.7149L23.4159 12.7979C23.5569 12.6059 23.5159 12.3369 23.3249 12.1959" fill="#65676A"/>
</svg>

<svg xmlns="http://www.w3.org/2000/svg" width="24" height="24" viewBox="0 0 24 24">
    <path fill="#65676A" fill-rule="evenodd" d="M23.325 12.196l-.404-.297C16.425 7.114 7.57 7.115 1.076 11.9l-.401.295c-.191.14-.232.41-.091.602l1.569 2.129c.555.754 1.58.982 2.403.534l2.297-1.251c.602-.328.977-.96.977-1.644v-1.847c2.736-.72 5.605-.72 8.34 0v1.847c0 .685.375 1.316.977 1.644l2.297 1.25c.822.448 1.848.22 2.403-.533l.157-.212 1.412-1.917c.14-.192.1-.461-.091-.602"/>
</svg>
